X:1
T:Merrily my love and I - Bateson
T:James Gibb editions
T:#
%%score 1 2 { 3 | 4 } 5
L:1/8
M:4/4
K:G
V:1 treble nm="Soprano I"
V:2 treble nm="Soprano II"
V:3 treble nm="Alto I" snm="A"
V:4 treble 
V:5 treble-8 nm="Tenor" snm="T"
V:1
"^Merrily my love and I""^Thomas Bateson\n (1575-1630)"!p! AGAB (cBc)d | e8 | E2 e4 d2 | %3
w: Mer- ri- ly my love * * and|I,|my love and|
 e4 z2"^cresc." e2 |[M:4/4] e3 e e2 e2 | d4 e4 | z2!f! g2 g3 g | f2 e2 (e2 ^d2) | e4 z2!p! c2 | %9
w: I Up-|on the plains were|sport- ing,|up- on the|plains were sport\- *|ing, up-|
 c3 c B2 A2 | (^GFGA BABc | B2 A4 ^G2) | A4 z2!f! c2 | %13
w: on the plains were|sport\- * * * * * * *||ing, were|
[Q:1/4=120][Q:1/4=120][Q:1/4=120][Q:1/4=120] (B2 A2 B4) |!>(! ^c8!>)! | z4!p! EDEF | %16
w: sport\- * *|ing;|Cheer- ful- ly the|
 (GFG)A (BAB)c | (dcB)d c4- | c2 c2 B4 | z2!f! e2 c2 d2 | e6!p! e2 | c3 d B2 c2 | B4 A3 B | %23
w: nymphs * * and fauns, * * the|nymphs * * and fauns,|* and fauns,|the nymphs and|fauns, Oft-|times to us re-|sort- ing, to|
 ^G2 A2 (A2 G2) | A4 z4 | z2 B2 c3 A | ^G2 A2 (A2 G2) | A4 z4 | z2"^cresc." e2 e4 | e8 | z8 | z8 | %32
w: us re- sort\- *|ing,|oft- times to|us re- sort\- *|ing,|re- sort-|ing.|||
 z4 z2!p! e2- | e2 d2 B2 d2 | c3 (B A3 ^G | A3 B c4) | B4 z2!f! e2 | e3 d c2 e2 | d4 e2 c2 | %39
w: Sor\-|* row did not|as- sail\- * *||us; We|tast- ed of each|plea- sure, we|
 G3 A B2 (F2- | FG) (A4 ^G2) | A4 e2 e2 | e2 e2 d2 d2 | e2!p! e2 c3 e | d3 c B2 E2- | %45
w: tast- ed of each|* * plea\- *|sure. Hap- py|those that may, like|us, Have part of|love's rich trea- sure,|
 E2 e2 =f2 f2 | e2 B2 z4 | z2 A2 G3 c | (B3 A ^G3 A) | (B2 c2) B4 | ^c4 z4 | z4!f! =c2 c2 | %52
w: * of love's rich|trea- sure,|have part of|love's * * *|rich * trea-|sure.|Hap- py|
 B2 c2 c2 B2 | c2!p! c2 A3 c | B2 A2 ^G4 | A4 z4 | z2 e2 c3 =f | %57
w: those that may, like|us, Have part of|love's rich trea-|sure,|have part of|
 e2[Q:1/4=119] d2[Q:1/4=116] e4[Q:1/4=115] | %58
w: love's rich trea-|
[Q:1/4=113] e2"^cresc." e2[Q:1/4=110] e2 e2[Q:1/4=111][Q:1/4=108] | %59
w: sure, of love's rich|
[Q:1/4=107] e8[Q:1/4=105][Q:1/4=103] |[Q:1/4=102] e16 |] %61
w: trea-|sure.|
V:2
 z8 |!p! EDEF (GFGA | BABc B2) A2 | ^G4 z2"^cresc." c2 |[M:4/4] c3 c c2 c2 | (c2 B2) c4 | %6
w: |Mer- ri- ly my love * * *|* * * * * and|I Up-|on the plains were|sport\- * ing,|
 z2!f! e2 e3 e | d2 B2 B4 | B4 z2!p! e2 | e3 e d2 c2 | (BABc dcde | d2 c2 B4) | ^c4 z4 | %13
w: up- on the|plains were sport-|ing, up-|on the plains were|sport\- * * * * * * *||ing,|
 z2!f! e2 e4 | e4!p! AGAB | (cBc)d e2 c2 | B3 A G4- | G4 A4 | G4 z4 |!f! G2 (c3 B) A2 | B8 | z8 | %22
w: were sport-|ing; Cheer- ful- ly the|nymphs * * and fauns, the|nymphs and fauns,|* and|fauns,|the nymphs * and|fauns,||
 z2!p! e2 c3 d | B2 c2 B4 | A3 B ^G2 A2 | (A2 ^G2) A4 | z4 z2 B2 | c3 A"^cresc." ^G2 A2 | %28
w: Oft- times to|us re- sort-|ing, to us re-|sort\- * ing,|to|us re- sort- ing,|
 B2 A2 A2 ^G2 | A4!p! c4- | c2 B2 =G2 A2 | B4 A4 | ^G2 E2 A4- | A4 ^G4 | A4 A4 | e4 e4 | e8 | z8 | %38
w: to us re- sort-|ing. Sor\-|* row did not|as- sail|us, not as\-|* sail,|us, not|as- sail|us;||
 z4 z2!f! e2 | B3 c d4- | d2 c2 B4 | ^c4 =c2 c2 | B2 c2 c2 B2 | c2!p! c2 A3 c | B2 A2 ^G4 | A4 z4 | %46
w: We|tast- ed of|* each plea-|sure. Hap- py|those that may, like|us, Have part of|love's rich trea-|sure,|
 z2 e2 c3 =f | e2 d2 e4 | e2 e2 e2 e2 | e8 | e4!f! =c2 c2 | B4 e2 e2 | e2 e2 d2 d2 | %53
w: have part of|love's rich trea-|sure, of love's rich|trea-|sure. Hap- py|those, hap- py|those that may, like|
 e2!p! e2 c3 e | d3 c B2 E2- | E2 e2 =f2 f2 | e2 B2 z4 | z2 A2 G3 c |"^cresc." (B3 A ^G3 A) | %59
w: us, Have part of|love's rich trea- sure,|* of love's rich|trea- sure,|have part of|love's * * *|
 (B2 c2) B4 | ^c16 |] %61
w: rich * trea-|sure.|
V:3
 z4!p! A,G,A,B, | (CB,C)D (EDE)F | (GFGA G2) =F2 | E4 z2"^cresc." G2 |[M:4/4] G3 G G2 G2 | G4 G4 | %6
w: Mer- ri- ly my|love * * and I, * * my|love * * * * and|I Up-|on the plains were|sport- ing,|
!f! E4 E3 E | F2 B,2 B,4 | B,4!p! E4 | C3 C G,2 A,2 | E4 D4- | D2 A,2 E2 E2 | z4 z2!f! E2 | E8 | %14
w: up- on the|plains were sport-|ing, up-|on the plains were|sport- ing,|* were sport- ing,|were|sport-|
!>(! E8!>)! | z8 | z8 | z8 |!p! ED"^cresc."EF (GFG)A | B2!f! G2 A2 A2 | ^G6!p! G2 | A3 B ^G2 A2 | %22
w: ing;||||Cheer- ful- ly the nymphs * * and|fauns, the nymphs and|fauns, Oft-|times to us re-|
 (A2 ^G2) A4 | z4 z2 E2 | C3 D B,2 C2 | B,4 A,2 A,2 | E,4 E,2 E2 | E3"^cresc." =F EE (D2- | %28
w: sort\- * ing,|oft-|times to us re-|sort- ing, re-|sort- ing, oft-|times to us re- sort\-|
 D2 C2 B,4) | ^C4 z4 |!p! E6 D2 | B,2 C2 D4- | D4 C4 | B,8 | A,4 A,4- | A,4 A4 | ^G8 | z8 | z8 | %39
w: |ing.|Sor- row|did not as\-|* sail|us,|not as\-|* sail|us;|||
 z2!f! E2 B,3 C | D2 A,2 E4 | E4 E2 E2 | EF G3 (DG=F) |!>(! E8!>)! | z4 z2!p! E2 | C3 E D3 C | %46
w: We tast- ed|of each plea-|sure. Hap- py|those that may, like * *|us,|Have|part of love's rich|
 B,2 B,B, A,3 D | B,2 A,2 E4 | E,4 z2 E2 | E2 E2 E4 | E4!f! E2 E2 | E4 A2 A2 | B2 (EF) G2 G2 | %53
w: trea- sure, have part of|love's rich trea-|sure, of|love's rich trea-|sure. Hap- py|those, hap- py|those that * may, like|
!>(! G4!>)! z4 | z4 z2!p! B2 | A3 =c B2 A2 | (A2 ^G2) A2 A2 | ^G2 A2 (B2 E2) | E6"^cresc." c2 | %59
w: us,|Have|part of love's rich|trea\- * sure, of|love's rich trea\- *|sure, of|
 B2 A2 (A2 ^G2) | A16 |] %61
w: love's rich trea\- *|sure.|
V:4
 z8 | z8 | z8 | z8 |[M:4/4] z8 | z8 | z2!f! G2 G3 E | AF (GE FG F2) |!>(! ^G8!>)! | z8 | z8 | %11
w: ||||||Up- on the|plains were sport\- * * * *|ing,|||
 z4 z2!p! E2 | E4 E2!f! A2 | (^G2 A4 G2) |!>(! A8!>)! |!p! A,=G,A,B, (CB,C)D | E2 E2 (D3 C | %17
w: were|sport- ing, were|sport\- * *|ing;|Cheer- ful- ly the nymphs * * and|fauns, the nymphs *|
 B,2) D2 E4 | z4!f! E4 | E6 A,2 | E4!p! E4 | =F3 D E2 C2 | E4 A,4 | z8 | z8 | z2 E2 C3 D | %26
w: * and fauns,|the|nymphs and|fauns, Oft-|times to us re-|sort- ing,|||oft- times to|
 B,2 C2 B,4 | E,4 z2"^cresc." A,2 | E2 E2 E4 | E8 | z2!p! G4 F2 | D2 E2 F2 D2 | E8- | E8 | z4 E4- | %35
w: us re- sort-|ing, to|us re- sort-|ing.|Sor- row|did not as- sail|us,||as\-|
 E4 E4 | E4 z2!f! G2 | G2 G2 G2 G2 | (G3 =F) E4 | z8 | z8 | z4 A2 A2 | B2 (EF) G2 G2 | G4 z4 | %44
w: * sail|us; We|tast- ed of each|plea\- * sure.|||Hap- py|those that * may, like|us,|
 z4 z2!p! B2 | A3 c B2 A2 | (A2 ^G2) A2 A2 | ^G2 A2 (B2 E2) | E4 z2 c2 | B2 A2 (A2 ^G2) | %50
w: Have|part of love's rich|trea\- * sure, of|love's rich trea\- *|sure, of|love's rich trea\- *|
 A4!f! A2 A2 | ^G4 E2 E2 | EF G3 (DG=F) |!>(! E8!>)! | z4 z2!p! E2 | C3 E D3 C | B,2 B,B, A,3 D | %57
w: sure. Hap- py|those, hap- py|those that may, like * *|us,|Have|part of love's rich|trea- sure, have part of|
 B,2 A,2 E4 | E,4 z2"^cresc." E2 | E2 E2 E4 | E16 |] %61
w: love's rich trea-|sure, of|love's rich trea-|sure.|
V:5
 z8 | z8 | z8 | z4 z2"^cresc." c2 |[M:4/4][K:treble-8] c3 c c2 c2 | G4 c4 | z2!f! c2 c3 c | %7
w: |||Up-|on the plains were|sport- ing,|up- on the|
 A2 G2 F4 |!>(! E8!>)! | z8 | z8 | z4 z2!p! E2 | A4 A2!f! A2 | (B2 c2 B4) |!>(! A8!>)! | z8 | %16
w: plains were sport-|ing,|||were|sport- ing, were|sport\- * *|ing;||
 EDEF (GFG)A | (BAG)B A2 A2 | E4 z2 B2- | B2 (c2 A2) d2 |!>(! B8!>)! | z8 | z2!p! E2 =F3 D | %23
w: Cheer- ful- ly the nymphs * * and|fauns, * * the nymphs and|fauns, the|* nymphs * and|fauns,||Oft- times to|
 E2 E2 E4 | A4 z4 | z8 | z4 z2"^cresc." B2 | A2 c2 B2 A2 | (^G2 A2 B4) | A8 | z8 | z8 | z8 | %33
w: us re- sort-|ing,||oft-|times to us re-|sort\- * *|ing.||||
 z4!p! e4- | e2 d2 c2 B2 | (c3 B) A4 | B4 z2!f! c2 | c2 c2 c2 c2 | (c2 B2) c4 | z8 | z4 E2 E2 | %41
w: Sor\-|* row did not|as\- * sail|us; We|tast- ed of each|plea\- * sure.||Hap- py|
 A4 A2 A2 | ^G2 c2 d2 d2 | c2!p! c2 c2 c2 | d2 d2 e4 | A2 A2 D2 D2 | E4 A4 | z4 z2 (BA) | %48
w: those, hap- py|those that may, like|us, Have part of|love's rich trea-|sure, of love's rich|trea- sure,|have *|
 G3 c (B2 A2) | (^G2 A2) B4 | A4!f! A2 A2 | E4 A2 A2 | ^G2 c2 d2 d2 | c2!p! c2 c2 c2 | d2 d2 e4 | %55
w: part of love's *|rich * trea-|sure. Hap- py|those, hap- py|those that may, like|us, Have part of|love's rich trea-|
 A2 A2 D2 D2 | E4 A4 | z4 z2 (BA) | G3 c (B2 A2) | (^G2 A2) B4 | A16 |] %61
w: sure, of love's rich|trea- sure,|have *|part of love's *|rich * trea-|sure.|

